X: 25303
T: Man Who Shot The Windmill, The
R: reel
M: 4/4
K: Dmajor
|:F2 ED FAA/A/A|FAfe dBBA|F/F/FED FABc|dBAF E3 F|
D2 B,A, B,EE/E/E|FEDE Fefe|dBBA B2 bf|afec dBBA:|
|:FAAF A2 FA|BAfe dBBA|FAAF A2 Bc|dBAF E/E/EEF|
DDB,A, B,EE/E/E|FEDE Fefe|dBBA B2 bf|afec dBBA:|

